img/alfa.svg

<svg width="213" height="58" viewBox="0 0 213 58" fill="none" xmlns="http://www.w3.org/2000/svg">
<g clip-path="url(#clip0_2_25)">
<path d="M28.9936 28.1824L17.9572 21.2621V29.5873L28.9936 36.5096L55.4124 17.0342C54.4804 14.9872 53.3143 13.0552 51.9376 11.2768L28.9936 28.1824Z" fill="white"/>
<path d="M57.9874 29C57.9882 27.2579 57.8328 25.5192 57.5231 23.8049L51.2815 28.4108C51.2815 28.6027 51.2815 28.8081 51.2815 29.0057C51.2863 33.9929 49.6212 38.8379 46.5518 42.7681C43.4824 46.6982 39.1856 49.4871 34.3468 50.6898C29.5079 51.8925 24.4057 51.4397 19.8541 49.4036C15.3026 47.3676 11.5638 43.8657 9.23414 39.4564C6.90451 35.0471 6.11827 29.9845 7.00082 25.0761C7.88337 20.1678 10.3839 15.6964 14.1035 12.3753C17.8231 9.05414 22.5475 7.0746 27.5231 6.75237C32.4987 6.43014 37.4388 7.78381 41.5556 10.5974L47.1946 6.4406C42.0763 2.31225 35.707 0.0467361 29.1318 0.0158459C22.5567 -0.0150442 16.1664 2.19052 11.0095 6.27059C5.85261 10.3507 2.2355 16.0629 0.751742 22.4699C-0.732015 28.8769 0.0057143 35.5981 2.84387 41.5305C5.68202 47.4629 10.452 52.2542 16.3711 55.118C22.2901 57.9818 29.0067 58.7481 35.4185 57.2911C41.8303 55.8341 47.5565 52.2404 51.6575 47.0997C55.7584 41.959 57.9905 35.5766 57.9874 29Z" fill="white"/>
<path d="M168.883 17.3605L176.765 11.5513H150.385V46.4507H176.765V40.6395H157.914V31.7041H173.995V25.8929H157.914V17.3605H168.883Z" fill="white"/>
<path d="M130.47 25.156H121.309V17.3624H135.945L143.827 11.5513H113.781V46.4507H129.5C138.326 46.4507 143.374 42.455 143.374 35.4886C143.374 28.8254 138.792 25.156 130.47 25.156ZM129.16 40.6395H121.309V30.9652H129.16C133.939 30.9652 136.165 32.5849 136.165 35.8033C136.165 39.0908 133.809 40.6395 129.16 40.6395Z" fill="white"/>
<path d="M198.14 11.5513H183.776V46.4507H191.305V36.5652H198.14C207.305 36.5652 213 31.7444 213 24.041C213 16.3376 207.305 11.5513 198.14 11.5513ZM197.978 30.7541H191.305V17.3624H197.978C202.802 17.3624 205.461 19.7402 205.461 24.0582C205.461 28.3763 202.802 30.7541 197.978 30.7541Z" fill="white"/>
<path d="M100.857 38.895C98.8618 39.9762 96.6258 40.536 94.3565 40.5225C87.57 40.5225 82.6524 35.6767 82.6524 29.0077C82.6524 22.3387 87.5796 17.4929 94.3565 17.4929C96.8095 17.4571 99.2095 18.2084 101.204 19.6366L106.606 15.6563L106.249 15.3415C103.096 12.5722 98.8827 11.1079 94.0668 11.1079C88.8402 11.1079 84.0895 12.8697 80.7145 16.0708C77.3395 19.2719 75.4323 23.8183 75.4323 28.8234C75.4323 33.8285 77.3011 38.4479 80.6953 41.7641C84.0895 45.0804 88.8306 46.9247 94.0188 46.9247C99.4449 46.9247 104.188 45.0324 107.398 41.5876L102.524 37.9969L100.857 38.895Z" fill="white"/>
</g>
<defs>
<clipPath id="clip0_2_25">
<rect width="213" height="58" fill="white"/>
</clipPath>
</defs>
</svg>

<svg width="213" height="58" fill="none" xmlns="http://www.w3.org/2000/svg"><g clip-path="url(#a)" fill="#fff"><path d="m28.994 28.182-11.037-6.92v8.325l11.037 6.923 26.418-19.476a29.112 29.112 0 0 0-3.474-5.757L28.994 28.182Z"/><path d="M57.987 29c.001-1.742-.154-3.48-.464-5.195l-6.242 4.606v.595A22.324 22.324 0 0 1 34.347 50.69 22.312 22.312 0 0 1 9.234 39.456a22.326 22.326 0 0 1 4.87-27.08 22.314 22.314 0 0 1 27.452-1.779l5.639-4.156A28.988 28.988 0 0 0 .752 22.47a29.004 29.004 0 0 0 15.62 32.648A28.986 28.986 0 0 0 51.656 47.1a29.002 29.002 0 0 0 6.33-18.1ZM168.883 17.36l7.882-5.809h-26.38v34.9h26.38v-5.812h-18.851v-8.935h16.081v-5.811h-16.081V17.36h10.969ZM130.47 25.156h-9.161v-7.794h14.636l7.882-5.81h-30.046V46.45H129.5c8.826 0 13.874-3.996 13.874-10.962 0-6.664-4.582-10.333-12.904-10.333Zm-1.31 15.483h-7.851v-9.674h7.851c4.779 0 7.005 1.62 7.005 4.838 0 3.288-2.356 4.837-7.005 4.837ZM198.14 11.551h-14.364v34.9h7.529v-9.886h6.835c9.165 0 14.86-4.82 14.86-12.524 0-7.703-5.695-12.49-14.86-12.49Zm-.162 19.203h-6.673V17.362h6.673c4.824 0 7.483 2.378 7.483 6.696s-2.659 6.696-7.483 6.696ZM100.857 38.895a13.476 13.476 0 0 1-6.5 1.627c-6.787 0-11.705-4.845-11.705-11.514 0-6.67 4.928-11.515 11.704-11.515a11.474 11.474 0 0 1 6.848 2.144l5.402-3.98-.357-.316c-3.153-2.769-7.366-4.233-12.182-4.233-5.227 0-9.977 1.762-13.352 4.963-3.376 3.2-5.283 7.747-5.283 12.752 0 5.005 1.87 9.625 5.263 12.941 3.395 3.316 8.136 5.16 13.324 5.16 5.426 0 10.169-1.892 13.379-5.336l-4.874-3.591-1.667.898Z"/></g><defs><clipPath id="a"><path fill="#fff" d="M0 0h213v58H0z"/></clipPath></defs></svg>
